X: 28
T: Scarborough Assembly Minuet
%R: minuet
B: Straight & Skillern "Minuets for the year 1777", p.28
F: http://www.vwml.org/browse/browse-collections-dance-tune-books/browse-straight1777
Z: 2014 John Chambers <jc:trillian.mit.edu>
M: 3/4
L: 1/8
K: A
% - - - - - - - - - - - - - - - - - - - - - - - - - - - - -
% Voice 1 formatted for a US-letter/A4 page size.
V: 1
|:\
A4cA | e2Bdc2 | fedcBA | TG2FGE2 |\
A4 d/c/B/A/ | e2Bdca | {g}fe/d/c2TB2 | HA6 :|
|:\
c4ec | B4eB | cBAGFE | T^D2CEB,2 |\
e4f2 | (3(gab) (3(^def) eB | (3({^d}cBA)G2F2 | "Da Capo"E6 :|
% - - - - - - - - - - - - - - - - - - - - - - - - - - - - -
% Voice 2 preserves the original staff breaks.
V: 2 clef=bass middle=d
|:\
a2c'2a2 | g2e2a2 | d4^d2 | e2B2E2 |\
A2c2A2 | e2g2a2 | d2e2E2 | HA2c2e2 :|
ac'e'c'a2 | gbe'bg2 | a4^a2 | b4B2 |\
egbg^db | e2f2g2 | a2b2B2 | "Da Capo"efedcB |]
% - - - - - - - - - - - - - - - - - - - - - - - - - - - - -

%%sep 1 1 500
%%sep 1 1 500
